X:47
T:Jamaica jam
C:Martin O'Connor
M:2/4
L:1/8
R:polka
D:The blue fiddle-sean smith
K:Amaj
fB ba| (3gfe d2 |c>B AA- |Aa fe |
ff/f/ ba| (3gfe ca |f3a |1fB Bc/e/:|2fB Be||
c>B AA- |AA/A/ AE|FB- BA/B/ |cB Be|
c>B AA- |AA/A/ Ac|ec BB/B/ |1cA Ae:|2cA Ac/e/||
